icons/terminal.svg

<svg xmlns="http://www.w3.org/2000/svg" viewBox="0 0 24 24" fill="currentColor">
  <path d="M9 3.75C6.11421 3.75 3.75 6.11421 3.75 9v6c0 2.8858 2.36421 5.25 5.25 5.25h6c2.8858 0 5.25-2.3642 5.25-5.25V9c0-2.88579-2.3642-5.25-5.25-5.25H9ZM2.25 9c0-3.71421 3.03579-6.75 6.75-6.75h6c3.7142 0 6.75 3.03579 6.75 6.75v6c0 3.7142-3.0358 6.75-6.75 6.75H9c-3.71421 0-6.75-3.0358-6.75-6.75V9Zm5.21967-.43023c.29289-.2929.76777-.2929 1.06066 0l2.09997 2.10003c.6929.6929.6929 1.7677 0 2.4606l-2.09997 2.1c-.29289.2929-.76777.2929-1.06066 0s-.29289-.7677 0-1.0606l2.10001-2.1c.06383-.0639.08033-.1249.08033-.1697 0-.0448-.0165-.1058-.08033-.1697L7.46967 9.63043c-.29289-.29289-.29289-.76777 0-1.06066ZM14 11.25c-.4142 0-.75.3358-.75.75s.3358.75.75.75h3c.4142 0 .75-.3358.75-.75s-.3358-.75-.75-.75h-3Z"/>
</svg>

<svg width="24" height="24" viewBox="0 0 24 24" fill="none" xmlns="http://www.w3.org/2000/svg">
<path fill-rule="evenodd" clip-rule="evenodd" d="M9 3.75C6.11421 3.75 3.75 6.11421 3.75 9V15C3.75 17.8858 6.11421 20.25 9 20.25H15C17.8858 20.25 20.25 17.8858 20.25 15V9C20.25 6.11421 17.8858 3.75 15 3.75H9ZM2.25 9C2.25 5.28579 5.28579 2.25 9 2.25H15C18.7142 2.25 21.75 5.28579 21.75 9V15C21.75 18.7142 18.7142 21.75 15 21.75H9C5.28579 21.75 2.25 18.7142 2.25 15V9ZM7.46967 8.56977C7.76256 8.27687 8.23744 8.27687 8.53033 8.56977L10.6303 10.6698C11.3232 11.3627 11.3232 12.4375 10.6303 13.1304L8.53033 15.2304C8.23744 15.5233 7.76256 15.5233 7.46967 15.2304C7.17678 14.9375 7.17678 14.4627 7.46967 14.1698L9.56968 12.0698C9.63351 12.0059 9.65001 11.9449 9.65001 11.9001C9.65001 11.8553 9.63351 11.7943 9.56968 11.7304L7.46967 9.63043C7.17678 9.33754 7.17678 8.86266 7.46967 8.56977ZM14 11.25C13.5858 11.25 13.25 11.5858 13.25 12C13.25 12.4142 13.5858 12.75 14 12.75H17C17.4142 12.75 17.75 12.4142 17.75 12C17.75 11.5858 17.4142 11.25 17 11.25H14Z" fill="black"/>
</svg>
